X:1
T:Title
%%score { 1 | 2 }
L:1/8
M:3/4
K:D
V:1 treble nm="Grand Piano"
V:2 bass 
V:1
 z2 z[Q:1/4=100] F F[EG] | [FA]3 [FA] DE | F4 [Fd]2 | c3 B A^G | [CA]3 [DF] [DF][EG] | %5
 [FA]3 [Fd] [Gc][A=c] | B4 B2 | A3 F [CF][CE] | D6 | F>=F ^F3 G | B>^G A3 F | %11
 [Fd]3 [DB] [D^G][DE] | [CA]3 [DF] [DF][EG] | [FA]3 [Fd] [Fe][Fd] | B4 B2 | A3 F [CF][CE] | %16
[M:3/8] D3 |] %17
V:2
 z2 z [D,A,D] [D,A,D][D,A,] | [D,D]3 [D,D] [D,F,][D,G,D] | [D,A,D]4 [D,A,]2 | %3
 [E,A,E]3 [E,^G,D] [E,A,C][E,B,D] | [A,,A,]3 [D,A,] [D,A,][D,A,] | [D,D]3 [D,A,] [E,A,][F,D] | %6
 [G,DG]4 [^G,D=F]2 | [A,DF]3[K:bass] [A,D] [A,,A,][A,,G,] | [D,F,A,]6 | %9
 [D,A,D]>[D,^G,D] [D,A,D]3 [D,B,D] | [D,G,D]>[D,=F,D] [D,^F,D]3 [D,A,D] | %11
 [B,,B,]3 [B,,B,] [E,B,][E,^G,] | [A,,A,]3 [D,A,] [D,A,][D,A,] | [D,D]3 [D,A,] [D,A,][D,D] | %14
 [G,DG]4 [G,D=F]2 | [A,DF]3[K:bass] [A,D] [A,,A,][A,,G,] |[M:3/8] [D,F,]3 |] %17

